src/assets/filled/Shuffle.svg

<svg width="24" height="24" viewBox="0 0 24 24"  xmlns="http://www.w3.org/2000/svg">
<path d="M21.75 17.9799C21.75 17.9599 21.74 17.9399 21.74 17.9199C21.73 17.8399 21.72 17.7599 21.69 17.6899C21.65 17.5999 21.6 17.5299 21.54 17.4599C21.54 17.4599 21.54 17.4499 21.53 17.4499C21.46 17.3799 21.38 17.3299 21.29 17.2899C21.2 17.2499 21.1 17.2299 21 17.2299L16.33 17.2499C16.33 17.2499 16.33 17.2499 16.32 17.2499C15.72 17.2499 15.14 16.9699 14.78 16.4899L13.56 14.9199C13.31 14.5899 12.84 14.5299 12.51 14.7899C12.18 15.0499 12.12 15.5099 12.38 15.8399L13.6 17.4099C14.25 18.2499 15.27 18.7499 16.33 18.7499H16.34L19.19 18.7399L18.48 19.4499C18.19 19.7399 18.19 20.2199 18.48 20.5099C18.63 20.6599 18.82 20.7299 19.01 20.7299C19.2 20.7299 19.39 20.6599 19.54 20.5099L21.54 18.5099C21.61 18.4399 21.66 18.3599 21.7 18.2699C21.73 18.1699 21.75 18.0699 21.75 17.9799Z" />
<path d="M8.42 6.69001C7.77 5.79001 6.73 5.26001 5.62 5.26001C5.61 5.26001 5.61 5.26001 5.6 5.26001L3 5.27001C2.59 5.27001 2.25 5.61001 2.25 6.02001C2.25 6.43001 2.59 6.77001 3 6.77001L5.61 6.76001H5.62C6.25 6.76001 6.84 7.06001 7.2 7.57001L8.28 9.07001C8.43 9.27001 8.66 9.38001 8.89 9.38001C9.04 9.38001 9.2 9.33001 9.33 9.24001C9.67 8.99001 9.74 8.52001 9.5 8.19001L8.42 6.69001Z" />
<path d="M21.74 6.07997C21.74 6.05997 21.75 6.03997 21.75 6.02997C21.75 5.92997 21.73 5.82997 21.69 5.73997C21.65 5.64997 21.6 5.56997 21.53 5.49997L19.53 3.49997C19.24 3.20997 18.76 3.20997 18.47 3.49997C18.18 3.78997 18.18 4.26997 18.47 4.55997L19.18 5.26997L16.45 5.25997C16.44 5.25997 16.44 5.25997 16.43 5.25997C15.28 5.25997 14.2 5.82997 13.56 6.79997L7.17 16.38C6.81 16.92 6.2 17.25 5.55 17.25H5.54L3 17.23C2.59 17.23 2.25 17.56 2.25 17.98C2.25 18.39 2.58 18.73 3 18.73L5.55 18.74C5.56 18.74 5.56 18.74 5.57 18.74C6.73 18.74 7.8 18.17 8.44 17.2L14.83 7.61997C15.19 7.07997 15.8 6.74997 16.45 6.74997H16.46L21 6.76997C21.1 6.76997 21.19 6.74997 21.29 6.70997C21.38 6.66997 21.46 6.61997 21.53 6.54997C21.53 6.54997 21.53 6.53997 21.54 6.53997C21.6 6.46997 21.66 6.39997 21.69 6.30997C21.72 6.23997 21.73 6.15997 21.74 6.07997Z" />
</svg>

<?xml version="1.0" encoding="UTF-8"?>
<svg width="24" height="24" viewBox="0 0 24 24" xmlns="http://www.w3.org/2000/svg">
 <path d="m21.75 17.98c0-0.02-0.01-0.04-0.01-0.06-0.01-0.08-0.02-0.16-0.05-0.23-0.04-0.09-0.09-0.16-0.15-0.23 0 0 0-0.01-0.01-0.01-0.07-0.07-0.15-0.12-0.24-0.16s-0.19-0.06-0.29-0.06l-4.67 0.02h-0.01c-0.6 0-1.18-0.28-1.54-0.76l-1.22-1.57c-0.25-0.33-0.72-0.39-1.05-0.13s-0.39 0.72-0.13 1.05l1.22 1.57c0.65 0.84 1.67 1.34 2.73 1.34h0.01l2.85-0.01-0.71 0.71c-0.29 0.29-0.29 0.77 0 1.06 0.15 0.15 0.34 0.22 0.53 0.22s0.38-0.07 0.53-0.22l2-2c0.07-0.07 0.12-0.15 0.16-0.24 0.03-0.1 0.05-0.2 0.05-0.29z"/>
 <path d="m8.42 6.69c-0.65-0.9-1.69-1.43-2.8-1.43h-0.02l-2.6 0.01c-0.41 0-0.75 0.34-0.75 0.75s0.34 0.75 0.75 0.75l2.61-0.01h0.01c0.63 0 1.22 0.3 1.58 0.81l1.08 1.5c0.15 0.2 0.38 0.31 0.61 0.31 0.15 0 0.31-0.05 0.44-0.14 0.34-0.25 0.41-0.72 0.17-1.05l-1.08-1.5z"/>
 <path d="m21.74 6.08c0-0.02 0.01-0.04 0.01-0.05 0-0.1-0.02-0.2-0.06-0.29s-0.09-0.17-0.16-0.24l-2-2c-0.29-0.29-0.77-0.29-1.06 0s-0.29 0.77 0 1.06l0.71 0.71-2.73-0.01h-0.02c-1.15 0-2.23 0.57-2.87 1.54l-6.39 9.58c-0.36 0.54-0.97 0.87-1.62 0.87h-0.01l-2.54-0.02c-0.41 0-0.75 0.33-0.75 0.75 0 0.41 0.33 0.75 0.75 0.75l2.55 0.01h0.02c1.16 0 2.23-0.57 2.87-1.54l6.39-9.58c0.36-0.54 0.97-0.87 1.62-0.87h0.01l4.54 0.02c0.1 0 0.19-0.02 0.29-0.06 0.09-0.04 0.17-0.09 0.24-0.16 0 0 0-0.01 0.01-0.01 0.06-0.07 0.12-0.14 0.15-0.23 0.03-0.07 0.04-0.15 0.05-0.23z"/>
</svg>
